X:0110
T:Fight About the Fireside
P:Glenburnie Rant
C:Niel Gow's Collection 1809
R:Reel (8x32)
B:RSCDS 1-10
Z:Anselm Lingnau <anselm@strathspey.org>
M:C|
L:1/8
K:Am
e|"Am"A2AB A2AB|"G"GABc dBGB|"Am"A2AB A2e2| "E7"aba^g "Am"a2 a2|
  "Am"A2AB A2AB|"G"GABc dBGB|"Am"A2AB A2e2| "E7"aba^g "Am"a2||
e|"Am"a2ab c'2ba|"G"gabc' d'bgb|"Am"a2ab c'2ba|"E7"aba^g "Am"a2e2|
  "Am"a2ab "D7"c'2ba|"G"gabc' d'bgb|"Am"c'2d'c' "Bo"b2c'b|"Am"ab"E7"a^g"Am"a2|]
